X: 42761
T: White Mountain, The
R: slip jig
M: 9/8
K: Emixolydian
EAA EAB =c3|EAA EAF GED|EGA EAB =c2 d|egd ege dBG:|
A2a gef g3|Aaa geA B^cd|A2a gef g2 e|d^cd g2e dBG:|

